fs/backspace_20_regular.svg

<svg viewBox="0 0 20 20" fill="none" xmlns="http://www.w3.org/2000/svg" height="1em" width="1em">
  <path d="M9.14645 7.14646C9.34171 6.9512 9.65829 6.9512 9.85355 7.14646L12 9.29291L14.1464 7.14646C14.3417 6.9512 14.6583 6.9512 14.8536 7.14646C15.0488 7.34172 15.0488 7.65831 14.8536 7.85357L12.7071 10L14.8536 12.1465C15.0488 12.3417 15.0488 12.6583 14.8536 12.8536C14.6583 13.0488 14.3417 13.0488 14.1464 12.8536L12 10.7071L9.85355 12.8536C9.65829 13.0488 9.34171 13.0488 9.14645 12.8536C8.95118 12.6583 8.95118 12.3417 9.14645 12.1465L11.2929 10L9.14645 7.85357C8.95118 7.65831 8.95118 7.34172 9.14645 7.14646ZM6.5858 4.66416C7.04775 4.23716 7.65369 4 8.28276 4H15.5C16.8807 4 18 5.11929 18 6.5V13.5C18 14.8807 16.8807 16 15.5 16H8.28276C7.65369 16 7.04775 15.7628 6.5858 15.3358L2.79937 11.8358C1.72866 10.8461 1.72866 9.15388 2.79937 8.16416L6.5858 4.66416ZM8.28276 5C7.90532 5 7.54175 5.14229 7.26458 5.3985L3.47816 8.8985C2.83573 9.49233 2.83573 10.5077 3.47816 11.1015L7.26458 14.6015C7.54175 14.8577 7.90532 15 8.28276 15H15.5C16.3284 15 17 14.3284 17 13.5V6.5C17 5.67157 16.3284 5 15.5 5H8.28276Z" fill="#212121"/>
</svg>

<svg viewBox="0 0 20 20" fill="none" xmlns="http://www.w3.org/2000/svg" height="1em" width="1em">
  <path d="M9.146 7.146a.5.5 0 0 1 .708 0L12 9.293l2.146-2.147a.5.5 0 0 1 .708.708L12.707 10l2.147 2.146a.5.5 0 0 1-.708.708L12 10.707l-2.146 2.147a.5.5 0 0 1-.708-.707L11.293 10 9.146 7.854a.5.5 0 0 1 0-.708Zm-2.56-2.482A2.5 2.5 0 0 1 8.283 4H15.5A2.5 2.5 0 0 1 18 6.5v7a2.5 2.5 0 0 1-2.5 2.5H8.283a2.5 2.5 0 0 1-1.697-.664l-3.787-3.5a2.5 2.5 0 0 1 0-3.672l3.787-3.5ZM8.283 5a1.5 1.5 0 0 0-1.018.399l-3.787 3.5a1.5 1.5 0 0 0 0 2.203l3.787 3.5A1.5 1.5 0 0 0 8.283 15H15.5a1.5 1.5 0 0 0 1.5-1.5v-7A1.5 1.5 0 0 0 15.5 5H8.283Z" fill="#212121"/>
</svg>
